Obsidian-SemiLight/actions/22s/format-node-curve.svg

<svg viewBox="0 0 22 22" xmlns="http://www.w3.org/2000/svg"><path d="m16 3v1a12 12 0 0 0 -8.9257812 4h.9257812v.4707031a11 11 0 0 1 8-3.4707031v1h3v-3zm1 1h1v1h-1zm-10 4.0859375a12 12 0 0 0 -3 7.9140625h-1v3h3v-3h-1a11 11 0 0 1 2.5214844-7h-.5214844zm-3 8.9140625h1v1h-1z" fill="#4d4d4d"/><path d="m6 7v3h3v-3zm1 1h1v1h-1z" fill="#3daee9"/></svg>

<svg xmlns="http://www.w3.org/2000/svg" viewBox="0 0 22 22">
  <defs id="defs3051">
    <style type="text/css" id="current-color-scheme">
      .ColorScheme-Text {
        color:#4d4d4d;
      }
      .ColorScheme-Highlight {
        color:#3daee9;
      }
      </style>
  </defs>
 <path 
     style="fill:currentColor;fill-opacity:1;stroke:none" 
     d="M 16 3 L 16 4 A 12 12 0 0 0 7.0742188 8 L 8 8 L 8 8.4707031 A 11 11 0 0 1 16 5 L 16 6 L 19 6 L 19 3 L 16 3 z M 17 4 L 18 4 L 18 5 L 17 5 L 17 4 z M 7 8.0859375 A 12 12 0 0 0 4 16 L 3 16 L 3 19 L 6 19 L 6 16 L 5 16 A 11 11 0 0 1 7.5214844 9 L 7 9 L 7 8.0859375 z M 4 17 L 5 17 L 5 18 L 4 18 L 4 17 z "
     class="ColorScheme-Text"
     />
 <path 
     style="fill:currentColor;fill-opacity:1;stroke:none" 
     d="M 6 7 L 6 10 L 9 10 L 9 7 L 6 7 z M 7 8 L 8 8 L 8 9 L 7 9 L 7 8 z "
     class="ColorScheme-Highlight"
     />
</svg>
